symbolic/48x48/apps/easy-ebook-viewer.svg

<svg xmlns="http://www.w3.org/2000/svg" width="48" height="48" version="1.1">
 <path style="opacity:0.2" class="cls-9" d="M 4.9999996,11 V 31.015128 C 9.6142857,32.776097 17.386188,37.514374 19.84714,41 l 4.152857,-8.695916 -5.99857,-9.077156 c 0,0 -1.619524,-1.742814 0.79619,-2.886535 A 45.6181,45.767022 0 0 0 4.9999996,11 Z"/>
 <path style="opacity:0.2" class="cls-9" d="M 42.999997,11 V 31.015128 C 38.385711,32.776097 30.613809,37.514374 28.152857,41 L 24,32.304084 29.99857,23.226928 c 0,0 1.619524,-1.742814 -0.79619,-2.886535 A 45.6181,45.767022 0 0 1 42.999997,11 Z"/>
 <path style="fill:#502e02" class="cls-1" d="m 33.999999,16.981967 a 10,10.011633 0 0 0 -14.372726,-8.9740634 10.072727,10.084445 0 0 1 1.145453,-0.072812 9.9454541,9.9570241 0 0 1 4.609092,1.1376852 10,10.011633 0 1 0 8.618181,9.9115162 c 0,-0.336754 0,-0.67351 -0.05455,-1.010264 -0.05455,-0.336755 0.05455,-0.655308 0.05455,-0.992062 z"/>
 <path style="fill:#f4f4f7;opacity:0.1" d="M 23.677734 7.0058594 A 10 10.011633 0 0 0 19.626953 8.0078125 A 10.072727 10.084445 0 0 1 20.773438 7.9355469 A 9.9454541 9.9570241 0 0 1 22.572266 8.1074219 A 10 10.011633 0 0 1 33.966797 17.339844 C 33.982359 17.221572 34 17.103715 34 16.982422 A 10 10.011633 0 0 0 23.677734 7.0058594 z M 22.492188 9.0957031 A 10 10.011633 0 0 0 14.025391 19.490234 A 10 10.011633 0 0 1 25.380859 10.072266 A 9.9454541 9.9570241 0 0 0 22.492188 9.0957031 z M 33.972656 18.263672 C 33.94404 18.499646 33.906229 18.733337 33.945312 18.974609 C 33.969415 19.123402 33.980772 19.271129 33.988281 19.419922 A 10 10.011633 0 0 0 34 18.984375 C 34 18.744188 33.992449 18.503859 33.972656 18.263672 z"/>
 <circle style="fill:#d9af4f" class="cls-4" cx="24" cy="23" r="7"/>
 <path style="fill:#385ca9" class="cls-9" d="M 42.999997,10 V 30.015128 C 38.385711,31.776097 30.613809,36.514374 28.152857,40 L 24,31.304084 29.99857,22.226928 c 0,0 1.619524,-1.742814 -0.79619,-2.886535 A 45.6181,45.767022 0 0 1 42.999997,10 Z"/>
 <path style="fill:#385ca9" class="cls-9" d="M 4.9999996,10 V 30.015128 C 9.6142857,31.776097 17.386188,36.514374 19.84714,40 l 4.152857,-8.695916 -5.99857,-9.077156 c 0,0 -1.619524,-1.742814 0.79619,-2.886535 A 45.6181,45.767022 0 0 0 4.9999996,10 Z"/>
 <path style="opacity:0.2" class="cls-9" d="m 24,25 c -4.857204,0 -7,-3 -7,-3 l 2.627616,19.647714 c 0,0 0.655408,2.352286 4.201796,2.352286 3.546389,0 4.201797,-2.343305 4.201797,-2.343305 L 31,22 c 0,0 -2.142795,3 -7,3 z"/>
 <path style="fill:#2a457e" class="cls-9" d="m 24,24 c -4.857204,0 -7,-3 -7,-3 l 2.627616,19.647714 c 0,0 0.655408,2.352286 4.201796,2.352286 3.546389,0 4.201797,-2.343305 4.201797,-2.343305 L 31,21 c 0,0 -2.142795,3 -7,3 z"/>
 <path style="opacity:0.2" d="m 11.697266,10 c -1.642724,-0.070749 -3.335464,0.407036 -5.0429691,1.789062 4.3877091,2.120402 8.4086671,4.93204 11.9101561,8.328126 C 17.591507,20.632443 17,21.285526 17,22 c 0,1.656854 3.134007,3 7,3 3.865993,0 7,-1.343146 7,-3 0,-0.711705 -0.58462,-1.364561 -1.550781,-1.878906 3.46088,-3.346194 7.42712,-6.122629 11.751953,-8.226563 C 39.560188,10.548175 37.931233,9.995746 36.347541,10 c -4.801637,0.0129 -9.187186,5.339939 -12.230353,10.755859 l -0.126954,0.22461 -0.08984,0.160156 -0.232422,-0.412109 C 20.686645,15.411178 16.401805,10.202616 11.697266,10 Z"/>
 <path style="fill:#b2bfd9" d="M 11.697266,9 C 10.054542,8.9292507 8.361802,9.4070364 6.6542969,10.789062 11.042006,12.909464 15.062964,15.721102 18.564453,19.117188 17.591507,19.632443 17,20.285526 17,21 c 0,1.656854 3.134007,3 7,3 3.865993,0 7,-1.343146 7,-3 0,-0.711705 -0.58462,-1.364561 -1.550781,-1.878906 3.46088,-3.346194 7.42712,-6.122629 11.751953,-8.226563 C 39.560188,9.5481748 37.931233,8.995746 36.347541,9 31.545904,9.0128978 27.160355,14.339939 24.117188,19.755859 l -0.126954,0.22461 -0.08984,0.160156 -0.232422,-0.412109 C 20.686645,14.411178 16.401805,9.2026163 11.697266,9 Z"/>
 <path style="opacity:0.2" class="cls-14" d="M 45,21.454774 C 45,26.119673 43.212395,27.5 42.020657,27.5 c -2.979345,0 -4.776882,-3.677512 0.595868,-3.939472 -4.727226,-0.403015 -4.915917,-3.89917 0,-4.030151 C 37.700608,19.157589 38.644066,15.500228 42.020657,15.500228 43.391155,15.480078 45,16.789876 45,21.454774 Z"/>
 <path style="fill:#d9af4f" class="cls-14" d="M 45,20.454774 C 45,25.119673 43.212395,26.5 42.020657,26.5 c -2.979345,0 -4.776882,-3.677512 0.595868,-3.939472 -4.727226,-0.403015 -4.915917,-3.89917 0,-4.030151 C 37.700608,18.157589 38.644066,14.500228 42.020657,14.500228 43.391155,14.480078 45,15.789876 45,20.454774 Z"/>
 <path style="opacity:0.2" class="cls-14" d="m 2.9999996,21.454774 c 0,4.664899 1.7876052,6.045226 2.9793434,6.045226 2.9793444,0 4.776882,-3.677512 -0.5958683,-3.939472 4.7272263,-0.403015 4.9159173,-3.89917 0,-4.030151 4.9159173,-0.372788 3.9724593,-4.030149 0.5958683,-4.030149 -1.3704981,-0.02015 -2.9793434,1.289648 -2.9793434,5.954546 z"/>
 <path style="fill:#d9af4f" class="cls-14" d="m 2.9999996,20.454774 c 0,4.664899 1.7876052,6.045226 2.9793434,6.045226 2.9793444,0 4.776882,-3.677512 -0.5958683,-3.939472 4.7272263,-0.403015 4.9159173,-3.89917 0,-4.030151 4.9159173,-0.372788 3.9724593,-4.030149 0.5958683,-4.030149 -1.3704981,-0.02015 -2.9793434,1.289648 -2.9793434,5.954546 z"/>
 <path style="opacity:0.2;fill:#f4f4f7" d="m 42.021484,14.5 c -2.012908,0 -3.149352,1.298916 -2.707031,2.427734 C 39.618394,16.149805 40.600683,15.5 42.021484,15.5 c 1.314095,-0.01932 2.831103,1.218282 2.955078,5.429688 C 44.981358,20.76562 45,20.628084 45,20.455078 45,15.79018 43.391982,14.47985 42.021484,14.5 Z m -1.699218,4.447266 c -1.14672,0.467538 -1.528259,1.250525 -1.191407,1.974609 0.352393,-0.729208 1.492842,-1.33751 3.486329,-1.390625 -1.00283,-0.07605 -1.750677,-0.293497 -2.294922,-0.583984 z m 0.0332,4.058593 c -1.095129,0.473102 -1.351243,1.235708 -1.078125,1.929688 0.306919,-0.690645 1.311947,-1.276126 3.339844,-1.375 -0.935224,-0.07973 -1.686153,-0.282835 -2.261719,-0.554688 z"/>
 <path style="opacity:0.2;fill:#f4f4f7" d="M 5.9785156,14.5 C 4.6080175,14.47985 3,15.79018 3,20.455078 3,20.628084 3.018642,20.76562 3.023437,20.929688 3.1474129,16.718282 4.6644209,15.480679 5.9785156,15.5 c 1.4208016,0 2.40309,0.649805 2.7070313,1.427734 C 9.1278681,15.798916 7.9914242,14.5 5.9785156,14.5 Z m 1.6992188,4.447266 c -0.5442453,0.290487 -1.2920923,0.507937 -2.2949219,0.583984 1.9934865,0.05311 3.1339354,0.661417 3.4863281,1.390625 0.3368521,-0.724084 -0.044687,-1.507071 -1.1914062,-1.974609 z m -0.033203,4.058593 c -0.5755659,0.271853 -1.3264952,0.474956 -2.2617187,0.554688 2.0278962,0.09887 3.0329245,0.684355 3.3398437,1.375 0.2731178,-0.69398 0.017004,-1.456586 -1.078125,-1.929688 z"/>
</svg>

<svg xmlns="http://www.w3.org/2000/svg" width="48" height="48"><path style="opacity:.2" class="cls-9" d="M5 11v20.015c4.614 1.761 12.386 6.5 14.847 9.985L24 32.304l-5.999-9.077s-1.62-1.743.797-2.887A45.618 45.767 0 0 0 5 11zM43 11v20.015c-4.614 1.761-12.386 6.5-14.847 9.985L24 32.304l5.999-9.077s1.62-1.743-.797-2.887A45.618 45.767 0 0 1 43 11z"/><path style="fill:#502e02" class="cls-1" d="M34 16.982a10 10.012 0 0 0-14.373-8.974 10.073 10.084 0 0 1 1.146-.073 9.945 9.957 0 0 1 4.609 1.138A10 10.012 0 1 0 34 18.984c0-.336 0-.673-.055-1.01-.054-.337.055-.655.055-.992z"/><path style="fill:#f4f4f7;opacity:.1" d="M23.678 7.006a10 10.012 0 0 0-4.051 1.002 10.073 10.084 0 0 1 1.146-.072 9.945 9.957 0 0 1 1.8.171 10 10.012 0 0 1 11.394 9.233c.015-.118.033-.236.033-.358a10 10.012 0 0 0-10.322-9.976zm-1.186 2.09a10 10.012 0 0 0-8.467 10.394 10 10.012 0 0 1 11.356-9.418 9.945 9.957 0 0 0-2.889-.976zm11.48 9.168c-.028.236-.066.47-.027.71.024.15.036.297.043.446a10 10.012 0 0 0 .012-.436c0-.24-.008-.48-.027-.72z"/><circle style="fill:#d9af4f" class="cls-4" cx="24" cy="23" r="7"/><path style="fill:#385ca9" class="cls-9" d="M43 10v20.015c-4.614 1.761-12.386 6.5-14.847 9.985L24 31.304l5.999-9.077s1.62-1.743-.797-2.887A45.618 45.767 0 0 1 43 10zM5 10v20.015c4.614 1.761 12.386 6.5 14.847 9.985L24 31.304l-5.999-9.077s-1.62-1.743.797-2.887A45.618 45.767 0 0 0 5 10z"/><path style="opacity:.2" class="cls-9" d="M24 25c-4.857 0-7-3-7-3l2.628 19.648S20.283 44 23.829 44c3.547 0 4.202-2.343 4.202-2.343L31 22s-2.143 3-7 3z"/><path style="fill:#2a457e" class="cls-9" d="M24 24c-4.857 0-7-3-7-3l2.628 19.648S20.283 43 23.829 43c3.547 0 4.202-2.343 4.202-2.343L31 21s-2.143 3-7 3z"/><path style="opacity:.2" d="M11.697 10c-1.642-.07-3.335.407-5.043 1.79a45.616 45.616 0 0 1 11.91 8.327C17.592 20.632 17 21.286 17 22c0 1.657 3.134 3 7 3s7-1.343 7-3c0-.712-.585-1.365-1.55-1.879A45.616 45.616 0 0 1 41.2 11.895c-1.64-1.347-3.27-1.9-4.853-1.895-4.802.013-9.188 5.34-12.23 10.756l-.128.224-.09.16-.232-.411C20.687 15.41 16.402 10.203 11.698 10z"/><path style="fill:#b2bfd9" d="M11.697 9c-1.642-.07-3.335.407-5.043 1.79a45.616 45.616 0 0 1 11.91 8.327C17.592 19.632 17 20.286 17 21c0 1.657 3.134 3 7 3s7-1.343 7-3c0-.712-.585-1.365-1.55-1.879A45.616 45.616 0 0 1 41.2 10.895c-1.64-1.347-3.27-1.9-4.853-1.895-4.802.013-9.188 5.34-12.23 10.756l-.128.224-.09.16-.232-.411C20.687 14.41 16.402 9.203 11.698 9z"/><path style="opacity:.2" class="cls-14" d="M45 21.455c0 4.665-1.788 6.045-2.98 6.045-2.979 0-4.776-3.678.597-3.94-4.728-.402-4.916-3.899 0-4.03-4.916-.372-3.973-4.03-.596-4.03C43.39 15.48 45 16.79 45 21.455z"/><path style="fill:#d9af4f" class="cls-14" d="M45 20.455c0 4.665-1.788 6.045-2.98 6.045-2.979 0-4.776-3.678.597-3.94-4.728-.402-4.916-3.899 0-4.03-4.916-.372-3.973-4.03-.596-4.03C43.39 14.48 45 15.79 45 20.455z"/><path style="opacity:.2" class="cls-14" d="M3 21.455C3 26.12 4.788 27.5 5.98 27.5c2.979 0 4.776-3.678-.597-3.94 4.728-.402 4.916-3.899 0-4.03 4.916-.372 3.973-4.03.596-4.03C4.61 15.48 3 16.79 3 21.455z"/><path style="fill:#d9af4f" class="cls-14" d="M3 20.455C3 25.12 4.788 26.5 5.98 26.5c2.979 0 4.776-3.678-.597-3.94 4.728-.402 4.916-3.899 0-4.03 4.916-.372 3.973-4.03.596-4.03C4.61 14.48 3 15.79 3 20.455z"/><path style="opacity:.2;fill:#f4f4f7" d="M42.021 14.5c-2.012 0-3.149 1.299-2.707 2.428.304-.778 1.287-1.428 2.707-1.428 1.315-.02 2.832 1.218 2.956 5.43.004-.164.023-.302.023-.475 0-4.665-1.608-5.975-2.979-5.955zm-1.699 4.447c-1.146.468-1.528 1.25-1.191 1.975.352-.73 1.493-1.338 3.486-1.39-1.003-.077-1.75-.294-2.295-.585zm.033 4.059c-1.095.473-1.35 1.236-1.078 1.93.307-.691 1.312-1.277 3.34-1.375-.935-.08-1.686-.283-2.262-.555zM5.979 14.5C4.608 14.48 3 15.79 3 20.455c0 .173.019.31.023.475.124-4.212 1.641-5.45 2.956-5.43 1.42 0 2.403.65 2.707 1.428.442-1.13-.695-2.428-2.707-2.428zm1.699 4.447c-.545.29-1.292.508-2.295.584 1.993.053 3.134.662 3.486 1.39.337-.723-.045-1.506-1.191-1.974zm-.033 4.059c-.576.272-1.327.475-2.262.555 2.028.098 3.033.684 3.34 1.375.273-.694.017-1.457-1.078-1.93z"/></svg>
